img/elem/ElemTiltedPlate24.svg

<svg height="24" width="24" xmlns="http://www.w3.org/2000/svg" xmlns:xlink="http://www.w3.org/1999/xlink">
  <linearGradient id="a" gradientUnits="userSpaceOnUse" x1="14.417367" x2="14.417367" y1="-3.758862" y2="17.241138">
    <stop offset="0" stop-color="#dbf6ff"/>
    <stop offset="1" stop-color="#7ddcfd"/>
  </linearGradient>
  <g stroke-linecap="round">
    <path d="m11.222797-4.364495h6.054427v21.525425h-6.054427z" fill="url(#a)" fill-rule="evenodd" stroke="#00b4ff" stroke-dashoffset="21.443998" transform="matrix(.8986833 .4385982 -.4385982 .8986833 0 0)"/>
    <path d="m10.036732 7.4775264 3.509678-3.350402m-1.509677 4.350402 3.509677-3.350402" fill="none" stroke="#00b4ff" stroke-width=".6"/>
    <path d="m4.2331925 19.350402 3.5096779-3.350402m-1.509677 4.350402 3.509677-3.350402" fill="none" stroke="#00b4ff" stroke-width=".7"/>
    <path d="m-1.7187269 10.531316h9.1529699l4.67212 3.994294h9.024757" fill="none" stroke="#f00" stroke-width="3"/>
    <path d="m18.504706 10.568774 4 3.948792-4.031855 4.012501" fill="none" stroke="#f00" stroke-linejoin="round" stroke-width="3"/>
  </g>
  <path d="m7.088176 12.214142 1.3488011-2.7880839 3.9891619 3.3916859-1.375753 2.786891z" fill="#da9999" fill-rule="evenodd"/>
</svg>

<?xml version="1.0" encoding="UTF-8" standalone="no"?>
<!-- Created with Inkscape (http://www.inkscape.org/) -->
<svg
   xmlns:dc="http://purl.org/dc/elements/1.1/"
   xmlns:cc="http://creativecommons.org/ns#"
   xmlns:rdf="http://www.w3.org/1999/02/22-rdf-syntax-ns#"
   xmlns:svg="http://www.w3.org/2000/svg"
   xmlns="http://www.w3.org/2000/svg"
   xmlns:xlink="http://www.w3.org/1999/xlink"
   xmlns:sodipodi="http://sodipodi.sourceforge.net/DTD/sodipodi-0.dtd"
   xmlns:inkscape="http://www.inkscape.org/namespaces/inkscape"
   width="24"
   height="24"
   id="svg2742"
   sodipodi:version="0.32"
   inkscape:version="0.46"
   version="1.0"
   sodipodi:docname="ElemTiltedPlate24.svg"
   inkscape:output_extension="org.inkscape.output.svg.inkscape"
   inkscape:export-filename="D:\Projects\rezonator2\elems\ElemTiltedPlate24.png"
   inkscape:export-xdpi="90"
   inkscape:export-ydpi="90">
  <defs
     id="defs2744">
    <linearGradient
       id="linearGradient3261">
      <stop
         style="stop-color:#dbf6ff;stop-opacity:1;"
         offset="0"
         id="stop3263" />
      <stop
         style="stop-color:#7ddcfd;stop-opacity:1;"
         offset="1"
         id="stop3265" />
    </linearGradient>
    <inkscape:perspective
       sodipodi:type="inkscape:persp3d"
       inkscape:vp_x="0 : 526.18109 : 1"
       inkscape:vp_y="0 : 1000 : 0"
       inkscape:vp_z="744.09448 : 526.18109 : 1"
       inkscape:persp3d-origin="372.04724 : 350.78739 : 1"
       id="perspective2750" />
    <linearGradient
       inkscape:collect="always"
       xlink:href="#linearGradient3261"
       id="linearGradient9664"
       x1="24"
       y1="1"
       x2="24"
       y2="22"
       gradientUnits="userSpaceOnUse"
       gradientTransform="translate(-9.5826331,-4.7588618)" />
  </defs>
  <sodipodi:namedview
     id="base"
     pagecolor="#ffffff"
     bordercolor="#666666"
     borderopacity="1.0"
     gridtolerance="10000"
     guidetolerance="10"
     objecttolerance="10"
     inkscape:pageopacity="0.0"
     inkscape:pageshadow="2"
     inkscape:zoom="28.067432"
     inkscape:cx="16.077299"
     inkscape:cy="11.65491"
     inkscape:document-units="px"
     inkscape:current-layer="layer1"
     showgrid="true"
     inkscape:window-width="1920"
     inkscape:window-height="1144"
     inkscape:window-x="-4"
     inkscape:window-y="-4"
     inkscape:snap-global="false">
    <inkscape:grid
       type="xygrid"
       id="grid2752"
       visible="true"
       enabled="true" />
  </sodipodi:namedview>
  <metadata
     id="metadata2747">
    <rdf:RDF>
      <cc:Work
         rdf:about="">
        <dc:format>image/svg+xml</dc:format>
        <dc:type
           rdf:resource="http://purl.org/dc/dcmitype/StillImage" />
      </cc:Work>
    </rdf:RDF>
  </metadata>
  <g
     inkscape:label="Layer 1"
     inkscape:groupmode="layer"
     id="layer1">
    <rect
       style="opacity:1;fill:url(#linearGradient9664);fill-opacity:1;fill-rule:evenodd;stroke:#00b4ff;stroke-width:0.99999994;stroke-linecap:round;stroke-linejoin:miter;stroke-miterlimit:4;stroke-dasharray:none;stroke-dashoffset:21.44399795;stroke-opacity:1"
       id="rect9147"
       width="6.0544267"
       height="21.525425"
       x="11.222797"
       y="-4.3644948"
       transform="matrix(0.8986833,0.4385982,-0.4385982,0.8986833,0,0)" />
    <path
       id="path3259"
       style="fill:none;fill-rule:evenodd;stroke:#00b4ff;stroke-width:0.60000002;stroke-linecap:round;stroke-linejoin:miter;stroke-miterlimit:4;stroke-dasharray:none;stroke-opacity:1"
       d="M 10.036732,7.4775264 L 13.54641,4.1271244 L 13.54641,4.1271244 M 12.036733,8.4775264 L 15.54641,5.1271244"
       sodipodi:nodetypes="ccccc" />
    <path
       sodipodi:nodetypes="ccccc"
       d="M 4.2331925,19.350402 L 7.7428704,16 L 7.7428704,16 M 6.2331934,20.350402 L 9.7428704,17"
       style="fill:none;fill-rule:evenodd;stroke:#00b4ff;stroke-width:0.69999999;stroke-linecap:round;stroke-linejoin:miter;stroke-miterlimit:4;stroke-dasharray:none;stroke-opacity:1"
       id="path9133" />
    <path
       style="fill:none;fill-rule:evenodd;stroke:#ff0000;stroke-width:3;stroke-linecap:round;stroke-linejoin:miter;marker-end:none;stroke-miterlimit:4;stroke-dasharray:none;stroke-opacity:1"
       d="M -1.7187269,10.531316 L 7.434243,10.531316 L 12.106363,14.52561 L 21.13112,14.52561"
       id="path13067"
       sodipodi:nodetypes="cccc" />
    <path
       style="fill:none;fill-rule:evenodd;stroke:#ff0000;stroke-width:3;stroke-linecap:round;stroke-linejoin:round;stroke-miterlimit:4;stroke-dasharray:none;stroke-opacity:1"
       d="M 18.504706,10.568774 L 22.504706,14.517566 L 18.472851,18.530067"
       id="path14040"
       sodipodi:nodetypes="ccc" />
    <path
       style="opacity:1;fill:#da9999;fill-opacity:1;fill-rule:evenodd;stroke:none;stroke-width:1px;stroke-linecap:butt;stroke-linejoin:miter;stroke-opacity:1"
       d="M 7.088176,12.214142 L 8.4369771,9.4260581 L 12.426139,12.817744 L 11.050386,15.604635 L 7.088176,12.214142 z"
       id="path9850"
       sodipodi:nodetypes="ccccc" />
  </g>
</svg>
